web/ui/src/components/theme/input/svgs/invisible.svg

<svg height="24" viewBox="0 0 24 24" width="24" xmlns="http://www.w3.org/2000/svg"><g fill="none"><path d="m0 0h24v24h-24z" fill="#000" opacity="0"/><path d="m11.7951249 9.38618316 2.5245284 2.52452834c0-.0814248 0-.0814248 0-.1628735 0-1.3844374-1.0586663-2.44310362-2.4431036-2.44310362.000024.08144878.000024.08144878-.0814248.08144878zm-3.50176979.65149434 1.22153979 1.2215637v.5700695c0 1.3844134 1.0586662 2.4430796 2.4431036 2.4430796.1628735 0 .3257471 0 .5700455-.0814487l1.2215398 1.2215637c-.5700455.3257472-1.140115.4886208-1.7916093.4886208-2.28023002 0-4.07181532-1.7916093-4.07181532-4.0718154 0-.6515182.16289756-1.2215638.40719593-1.7916332zm-4.47898725-4.4789873 1.87303409 1.87303409.32574714.32574715c-1.38441337 1.05866622-2.44310357 2.44307956-3.01314909 4.07181536 1.38441337 3.5831945 4.88618316 6.1077229 8.9580225 6.1077229 1.2215397 0 2.4431035-.2443223 3.5831945-.6514943l.3257472.3257472 2.3616548 2.3616548 1.0586662-1.0586663-14.41425114-14.4142511zm8.14363064 2.19878124c2.28023 0 4.0718153 1.79160928 4.0718153 4.07181536 0 .4886207-.0814488 1.0586662-.3257472 1.4658621l2.3616548 2.3616548c1.2215398-1.0586902 2.1987813-2.3616548 2.7688508-3.8275169-1.3844134-3.58321863-4.8861832-6.10774699-8.9580225-6.10774699-1.140115 0-2.19878122.24429837-3.25747142.57004552l1.79160932 1.79160928c.4886447-.24429839 1.0586902-.32572317 1.5473109-.32572317z" fill="#999"/></g></svg>

<?xml version="1.0" encoding="UTF-8"?>
<svg width="24px" height="24px" viewBox="0 0 24 24" version="1.1" xmlns="http://www.w3.org/2000/svg" xmlns:xlink="http://www.w3.org/1999/xlink">
    <title>密码不可见备份 2</title>
    <g id="页面-1" stroke="none" stroke-width="1" fill="none" fill-rule="evenodd">
        <g id="系统设计规范" transform="translate(-1212.000000, -5359.000000)" fill-rule="nonzero">
            <g id="密码不可见备份-2" transform="translate(1212.000000, 5359.000000)">
                <rect id="矩形" fill="#000000" opacity="0" x="0" y="0" width="24" height="24"></rect>
                <path d="M11.7951249,9.38618316 L14.3196533,11.9107115 C14.3196533,11.8292867 14.3196533,11.8292867 14.3196533,11.747838 C14.3196533,10.3634006 13.260987,9.30473438 11.8765497,9.30473438 C11.8765737,9.38618316 11.8765737,9.38618316 11.7951249,9.38618316 Z M8.29335511,10.0376775 L9.5148949,11.2592412 C9.5148949,11.5035636 9.5148949,11.6664372 9.5148949,11.8293107 C9.5148949,13.2137241 10.5735611,14.2723903 11.9579985,14.2723903 C12.120872,14.2723903 12.2837456,14.2723903 12.528044,14.1909416 L13.7495838,15.4125053 C13.1795383,15.7382525 12.6094688,15.9011261 11.9579745,15.9011261 C9.67774448,15.9011261 7.88615918,14.1095168 7.88615918,11.8293107 C7.88615918,11.1777925 8.04905674,10.6077469 8.29335511,10.0376775 Z M3.81436786,5.5586902 L5.68740195,7.43172429 L6.01314909,7.75747144 C4.62873572,8.81613766 3.57004552,10.200551 3,11.8292868 C4.38441337,15.4124813 7.88618316,17.9370097 11.9580225,17.9370097 C13.1795622,17.9370097 14.401126,17.6926874 15.541217,17.2855154 L15.8669642,17.6112626 L18.228619,19.9729174 L19.2872852,18.9142511 L4.87303406,4.5 L3.81436786,5.5586902 Z M11.9579985,7.75747144 C14.2382285,7.75747144 16.0298138,9.54908072 16.0298138,11.8292868 C16.0298138,12.3179075 15.948365,12.887953 15.7040666,13.2951489 L18.0657214,15.6568037 C19.2872612,14.5981135 20.2645027,13.2951489 20.8345722,11.8292868 C19.4501588,8.24606817 15.948389,5.72153981 11.8765497,5.72153981 C10.7364347,5.72153981 9.67776848,5.96583818 8.61907828,6.29158533 L10.4106876,8.08319461 C10.8993323,7.83889622 11.4693778,7.75747144 11.9579985,7.75747144 Z" id="形状" fill="#999999"></path>
            </g>
        </g>
    </g>
</svg>
